X: 2343
T: SCOTCH HORNPIPE
%R: hornpipe, reel
B: James Kerr "Merry Melodies" v.2 p.38 #343
Z: 2016 John Chambers <jc:trillian.mit.edu>
M: C
L: 1/8
K: D
|:\
vF2F2 FGFE | DFAF B2A2 |\
BFAF BFA [1,3 d | EDEF EDB,A, :|\
[2,4 g | fdec d2A2 ::\
f2f2 fgfe |
defd B2A2 |\
BdAd BdAF | EDEF Ecde |\
f2f2 fgfe | defd B2A2 |\
BdAd BdAg | fdec d2D2 :|
